!!!!SEGMENT: pl-wtm--r-1589--003_stefani-jozef--vesperae-de-apostolis-antiphona.krn
!!!cenid: 18xx:2351
!!!COM: Stefani, Józef
!!!COM-rismID: pe30024097
!!!CDT: 1800/04/16-1876/03/19
!!!CNT: Polish
!!!OPR: Vesperae de Apostolis
!!!OTL: Antiphona
!!!OMV: 003
!!!PDT:
!!!AGN: Sacred; Vespers
!!!SMS-siglum: PL-Wtm
!!!SMS-shelfmark: R 1589
!!!SMS-shelfwork: 001-003 M
!!!SMS-variant:
!!!SMS-altvar:
!!!NIFC-rismSourceID: 1001115607
!!!NIFC-rismChildID: 1001115607
!!!NIFC-islandoraID: pl-wtm:27337
!!!URL-pdf-islandora: https://repozytorium.nifc.pl/islandora/object/pl-wtm%3A27337/datastream/PDF/view
!!!URL-scan: https://polish.musicsources.pl/pl/lokalizacje/galeria/rekopisy/6383 @EN{Scan on Polish Music Sources Website} @PL{Skany w portalu Dziedzictwo Muzyki Polskiej w otwartym dostępie}
!!!IIIF:
!!!ONB-nifc: UWAGA: części: 5 Antyfon (001-005) i Magnificat (006)
!!!OMD: Adagio
!!!AIN: 1 empty 2 tenor
!!!key:
**kern	**text	**dynam	**kern	**dynam	**kern	**text	**dynam
*part3	*part3	*part3	*part2	*part2	*part1	*part1	*part1
*staff3	*staff3	*	*staff2	*	*staff1	*staff1	*
*Iempty	*	*	*Itenor	*	*Itenor	*	*
*I"[Basso]	*	*	*I"[Tenore 2o]	*	*I"[Tenore 1o]	*	*
*clefF4	*	*	*clefC4	*	*clefC4	*	*
*k[b-e-]	*	*	*k[b-e-]	*	*k[b-e-]	*	*
*B-:	*	*	*B-:	*	*B-:	*	*
*M4/4	*	*	*M4/4	*	*M4/4	*	*
*met(c)	*	*	*met(c)	*	*met(c)	*	*
*all\right	*	*	*all\right	*	*all\right	*	*
!	!	!	!	!	!LO:TX:a:t=Antiphona IIIa	!	!
!	!	!LO:DY:rj	!	!	!	!	!LO:DY:b:rj
(4B-\	Vos	mf	4B-\	.	[4d\	Vos	mf
=1	=1	=1	=1	=1	=1	=1	=1
*	*	*	*2\right	*	*2\right	*	*
4B-\	.	.	2B-\	.	2d\]	.	.
4A\)	.	.	.	.	.	.	.
*2\right	*	*	*	*	*	*	*
2G\	a-	.	2B-\	.	(8f\	a-	.
.	.	.	.	.	4e-\	.	.
.	.	.	.	.	8B-\)	.	.
=2	=2	=2	=2	=2	=2	=2	=2
(4.F\	-mi-	.	(4.A\	.	(4.c\	-mi-	.
8BB-/)	.	.	8B-\)	.	8d\)	.	.
2BB-/	-ci	.	2B-\	.	2d\	-ci	.
=3	=3	=3	=3	=3	=3	=3	=3
(2D\	mei-	.	(2B-\	.	2.f\	me-	.
4C\)	.	.	4G/)	.	.	.	.
4C\	-i	.	4A/	.	4e-\	-i	.
=4	=4	=4	=4	=4	=4	=4	=4
2BB-/	es-	.	2B-\	.	2d\	es-	.
4F\	-tis,	.	4A\	.	4c\	-tis,	.
4F\	si-	.	4A\	.	4c\	si-	.
!!LO:LB:g=original
=5	=5	=5	=5	=5	=5	=5	=5
2F\	-fe-	.	(4A\	<	(4c\	-fe-	<
.	.	.	8B-\L	.	8d\L	.	.
.	.	.	8c\J)	.	8e-\J)	.	.
4F\	-ce-	.	4d\	[ >	4f\	-ce-	[ >
4F\	-ri-	.	(8c\L	]	(8e-\L	-ri-	.
.	.	.	8A\J)	.	8c\J)	.	]
=6	=6	=6	=6	=6	=6	=6	=6
2BB-/	-tis	.	2B-\	.	2d\	-tis	.
4r	.	.	4r	.	4r	.	.
4B-\	quae	.	4B-\	.	4B-\	quae	.
=7	=7	=7	=7	=7	=7	=7	=7
2E-\	prae-	.	2B-\	.	2g^\	prae-	.
4D\	-ci-	.	4B-\	.	4f\	-ci-	.
4D\	-pio	.	4B-\	.	4B-\	-pio	.
=8	=8	=8	=8	=8	=8	=8	=8
2C/	vo-	.	(4G/	.	2e-^\	vo-	.
.	.	.	4A/)	.	.	.	.
4BB-/	-bis,	.	4B-\	.	4d\	-bis,	.
4r	.	.	4r	.	4r	.	.
!!LO:LB:g=original
=9	=9	=9	=9	=9	=9	=9	=9
2.F\	di-	<	2.F/	.	2.F/	di-	<
!	!	!	!	!	!	!	!LO:DY:rj
4F\	-cit	[ f	4F/	.	4f\	-cit	[ f
=10	=10	=10	=10	=10	=10	=10	=10
*	*	*	*^	*	*	*	*
4.BB-/	Do-	.	4.B- 4.F/	2ryy	.	4.d\	Do-	.
8BB-/	-mi-	.	8B- 8F/	.	.	8d\	-mi-	.
2BB-/	-nus	.	2B-/	2F\	.	2d\	-nus.	.
*	*	*	*v	*v	*	*	*	*
=11	=11	=11	=11	=11	=11	=11	=11
!	!	!LO:DY:rj	!	!	!	!	!LO:DY:rj
(4E-\	di-	p	2G/	.	(4c\	di-	p
4BBn/)	.	<	.	.	4d\)	.	<
(4C/	-cit	.	2G/	.	(4e-\	-cit	.
4E-\)	.	[[	.	.	4c\)	.	[[
=12	=12	=12	=12	=12	=12	=12	=12
!	!	!	!	!	!	!	!LO:DY:rj
2.F\	Do-	f	(4B-\	.	(4d\	Do-	f
.	.	.	8A\L	.	8c\L	.	.
.	.	.	8B-\J	.	8d\J	.	.
.	.	.	4c\)	.	4e-\)	.	.
4F\	-mi-	.	4A\	.	4c\	-mi-	.
=13	=13	=13	=13	=13	=13	=13	=13
2.BB-/	-nus.	.	2.B-\	.	2.B-\	-nus.	.
4r	.	.	4r	.	4r	.	.
==	==	==	==	==	==	==	==
*-	*-	*-	*-	*-	*-	*-	*-
!!!system-decoration: {s1,s2,s3}
!!!ENC: Marta Lawrence
!!!END: 2021-06-14
!!!ENC: Andrzej Gręziak
!!!END: 2021-06-04
!!!YEC: Copyright 2022 Narodowy Instytut Fryderyka Chopina (https://polishscores.org)
!!!YEM: License CC-BY-4.0 (https://creativecommons.org/licenses/by/4.0)
